X: 1
T: Fred Finn's #2
M: 4/4
L: 1/8
R: reel
K: Gmaj
F ||\ 
GB BA G3 A | FAAG FADF | GBBA GBdg | fgaf gedB |
GB BA G3 G | FAAG FADF | GBBA GBdg | fgaf g3 f ||
gb ~b2 affg | agef gede | gb ~b2 faag | agef g3 f |
gb ~b2 affg | agef gede | g2 bg faag | agef gedB |]
